packages/icons/svg/Fill/checkmark-square.svg

<svg fill="none" height="24" viewBox="0 0 24 24" width="24" xmlns="http://www.w3.org/2000/svg"><path clip-rule="evenodd" d="m16.2954 9.60511-4.568 5.99999c-.188.247-.479.393-.789.395h-.007c-.307 0-.597-.142-.787-.384l-2.43205-3.107c-.34-.434-.264-1.063.171-1.403.435-.341 1.063-.265 1.404.171l1.63305 2.086 3.784-4.96899c.334-.439.962-.525 1.402-.19.439.335.524.962.189 1.401zm1.705-6.60487h-12.00003c-1.655 0-3 1.345-3 3v11.99996c0 1.654 1.345 3 3 3h12.00003c1.654 0 3-1.346 3-3v-11.99996c0-1.655-1.346-3-3-3z" fill="#6b7280" fill-rule="evenodd"/></svg>

<svg width="24" height="24" viewBox="0 0 24 24" fill="none" xmlns="http://www.w3.org/2000/svg">
<g id="Icon/Fill/checkmark-square">
<path id="Mask" fill-rule="evenodd" clip-rule="evenodd" d="M16.2955 9.60549L11.7275 15.6055C11.5395 15.8525 11.2485 15.9985 10.9385 16.0005H10.9315C10.6245 16.0005 10.3345 15.8585 10.1445 15.6165L7.71249 12.5095C7.37249 12.0755 7.44849 11.4465 7.88349 11.1065C8.31849 10.7655 8.94649 10.8415 9.28749 11.2775L10.9205 13.3635L14.7045 8.39449C15.0385 7.95549 15.6665 7.86949 16.1065 8.20449C16.5455 8.53949 16.6305 9.16649 16.2955 9.60549ZM18.0005 3.00049H6.00049C4.34549 3.00049 3.00049 4.34549 3.00049 6.00049V18.0005C3.00049 19.6545 4.34549 21.0005 6.00049 21.0005H18.0005C19.6545 21.0005 21.0005 19.6545 21.0005 18.0005V6.00049C21.0005 4.34549 19.6545 3.00049 18.0005 3.00049Z" fill="#000000"/>
</g>
</svg>
